public/img/home/hairdryer.svg

<svg xmlns="http://www.w3.org/2000/svg" xmlns:xlink="http://www.w3.org/1999/xlink" preserveAspectRatio="xMidYMid" width="40" height="35" viewBox="0 0 40 35">
  <defs>
    <style>
      .cls-1 {
        fill: #C4C4C4;
        fill-rule: evenodd;
      }
    </style>
  </defs>
  <path d="M38.908,10.394 C38.686,10.394 38.508,10.308 38.331,10.221 L36.865,9.355 C36.287,9.008 35.621,9.008 35.044,9.355 C33.800,10.091 32.201,10.091 30.957,9.355 L29.491,8.489 C28.958,8.186 28.780,7.536 29.091,7.016 C29.402,6.496 30.068,6.323 30.601,6.626 L32.067,7.492 C32.645,7.839 33.311,7.839 33.889,7.492 C35.132,6.756 36.732,6.756 37.975,7.492 L39.441,8.359 C39.974,8.662 40.152,9.311 39.841,9.875 C39.663,10.221 39.264,10.394 38.908,10.394 ZM38.864,6.063 C38.642,6.063 38.464,5.976 38.286,5.890 L36.820,5.024 C36.243,4.677 35.577,4.677 34.999,5.024 C33.755,5.760 32.156,5.760 30.912,5.024 L29.446,4.157 C28.913,3.854 28.736,3.204 29.047,2.685 C29.358,2.165 30.024,1.992 30.557,2.295 L32.023,3.161 C32.600,3.464 33.311,3.464 33.844,3.204 C35.088,2.468 36.687,2.468 37.931,3.204 L39.397,4.071 C39.930,4.374 40.108,5.024 39.797,5.543 C39.619,5.890 39.219,6.063 38.864,6.063 ZM25.804,12.907 L16.920,15.072 C16.831,15.116 16.742,15.116 16.653,15.116 L12.211,15.116 L12.211,22.696 C12.211,23.302 11.722,23.779 11.100,23.779 L8.391,23.779 L7.280,25.598 C6.614,26.724 6.614,28.110 7.280,29.193 C8.391,30.969 8.391,33.221 7.280,34.997 L5.370,33.871 C6.036,32.745 6.036,31.359 5.370,30.276 C4.259,28.500 4.259,26.248 5.370,24.472 L5.947,23.519 C5.725,23.345 5.548,23.042 5.548,22.696 L5.548,15.072 C2.394,14.553 -0.005,11.867 -0.005,8.662 L-0.005,6.496 C-0.005,2.901 2.971,-0.001 6.658,-0.001 L16.653,-0.001 C16.697,-0.001 16.697,-0.001 16.742,-0.001 C16.786,-0.001 16.875,-0.001 16.920,-0.001 L25.804,2.165 C26.292,2.295 26.648,2.728 26.648,3.204 L26.648,11.867 C26.648,12.344 26.292,12.777 25.804,12.907 ZM7.769,21.613 L9.990,21.613 L9.990,15.116 L7.769,15.116 L7.769,21.613 ZM15.542,2.121 L6.658,2.121 C5.548,2.121 4.526,2.511 3.726,3.204 L5.548,3.204 C6.169,3.204 6.658,3.681 6.658,4.287 C6.658,4.893 6.169,5.370 5.548,5.370 L2.349,5.370 C2.260,5.717 2.216,6.063 2.216,6.453 L5.548,6.453 C6.169,6.453 6.658,6.929 6.658,7.536 C6.658,8.142 6.169,8.618 5.548,8.618 L2.216,8.618 C2.216,9.008 2.260,9.355 2.349,9.701 L5.548,9.701 C6.169,9.701 6.658,10.178 6.658,10.784 C6.658,11.391 6.169,11.867 5.548,11.867 L3.726,11.867 C4.526,12.560 5.548,12.950 6.658,12.950 L15.542,12.950 L15.542,2.121 ZM24.427,4.071 L17.763,2.424 L17.763,12.647 L24.427,11.001 L24.427,4.071 ZM30.601,10.958 L32.067,11.824 C32.645,12.170 33.311,12.170 33.889,11.824 C35.132,11.087 36.732,11.087 37.975,11.824 L39.441,12.690 C39.974,12.993 40.152,13.643 39.841,14.206 C39.663,14.553 39.264,14.726 38.908,14.726 C38.686,14.726 38.508,14.639 38.331,14.553 L36.865,13.686 C36.287,13.340 35.621,13.340 35.044,13.686 C33.800,14.422 32.201,14.422 30.957,13.686 L29.491,12.820 C28.958,12.517 28.780,11.867 29.091,11.347 C29.402,10.828 30.068,10.654 30.601,10.958 Z" class="cls-1"/>
</svg>

<svg xmlns="http://www.w3.org/2000/svg" width="40" height="35" preserveAspectRatio="xMidYMid"><defs><style>.cls-1 { fill: #C4C4C4; fill-rule: evenodd; }</style></defs><path d="M38.9 10.4c-.2 0-.4-.1-.57-.18l-1.46-.87c-.58-.34-1.25-.34-1.83 0-1.24.74-2.84.74-4.08 0L29.5 8.5c-.54-.3-.72-.96-.4-1.48.3-.52.97-.7 1.5-.4l1.47.87c.58.34 1.24.34 1.82 0 1.23-.74 2.83-.74 4.08 0l1.46.86c.53.3.7.95.4 1.52-.18.34-.58.5-.93.5zm-.04-4.34c-.22 0-.4-.08-.57-.17L36.8 5c-.58-.34-1.24-.34-1.82 0-1.24.74-2.84.74-4.1 0l-1.45-.86c-.54-.3-.7-.96-.4-1.48.3-.52.97-.7 1.5-.4l1.47.88c.58.3 1.3.3 1.82.04 1.25-.73 2.85-.73 4.1 0l1.46.87c.53.3.7.95.4 1.47-.18.35-.58.52-.94.52zM25.8 12.9l-8.88 2.17c-.1.05-.18.05-.27.05H12.2v7.58c0 .6-.48 1.08-1.1 1.08H8.4L7.27 25.6c-.67 1.12-.67 2.5 0 3.6 1.1 1.77 1.1 4.02 0 5.8l-1.9-1.13c.66-1.13.66-2.5 0-3.6-1.12-1.77-1.12-4.02 0-5.8l.57-.95c-.23-.18-.4-.48-.4-.82v-7.63C2.4 14.55 0 11.87 0 8.67V6.5C0 2.9 2.97 0 6.66 0h10c.04 0 .04 0 .08 0 .05 0 .14 0 .18 0l8.88 2.17c.5.13.85.56.85 1.03v8.67c0 .47-.36.9-.85 1.04zM7.77 21.6H10v-6.48H7.76v6.5zm7.77-19.48H6.66c-1.1 0-2.13.4-2.93 1.08h1.82c.62 0 1.1.48 1.1 1.1 0 .6-.48 1.07-1.1 1.07h-3.2c-.1.35-.13.7-.13 1.08h3.33c.62 0 1.1.48 1.1 1.1 0 .6-.48 1.07-1.1 1.07H2.22c0 .4.04.74.13 1.08h3.2c.62 0 1.1.48 1.1 1.08 0 .6-.48 1.1-1.1 1.1H3.73c.8.68 1.82 1.07 2.93 1.07h8.88V2.12zm8.9 1.95l-6.68-1.65v10.23L24.43 11V4.07zm6.16 6.9l1.47.85c.58.35 1.24.35 1.82 0 1.23-.73 2.83-.73 4.08 0l1.46.87c.53.3.7.94.4 1.5-.18.35-.58.53-.93.53-.2 0-.4-.1-.57-.18l-1.46-.86c-.58-.36-1.25-.36-1.83 0-1.24.72-2.84.72-4.08 0l-1.47-.88c-.54-.3-.72-.95-.4-1.47.3-.52.97-.7 1.5-.4z" class="cls-1"/></svg>
